src/icons/svgs/24/envelope.svg

<svg width="24" height="24" viewBox="0 0 24 24" fill="none" xmlns="http://www.w3.org/2000/svg">
<path d="M19.5 5H4.5C3.11914 5 2 6.11914 2 7.5V17.5C2 18.8809 3.11914 20 4.5 20H19.5C20.8809 20 22 18.8809 22 17.5V7.5C22 6.11914 20.8789 5 19.5 5ZM4.5 6.875H19.5C19.8446 6.875 20.125 7.15539 20.125 7.5V8.36563L13.6094 13.7602C12.7035 14.5133 11.2914 14.5129 10.3879 13.7608L3.875 8.36719V7.5C3.875 7.15625 4.15547 6.875 4.5 6.875ZM19.5 18.125H4.5C4.15539 18.125 3.875 17.8446 3.875 17.5V10.8086L9.19141 15.2383C9.98047 15.8906 10.9766 16.25 12 16.25C13.0234 16.25 14.0215 15.8911 14.8113 15.2352L20.125 10.8086V17.5C20.125 17.8438 19.8438 18.125 19.5 18.125Z" fill="black"/>
</svg>

<svg width="24" height="24" viewBox="0 0 24 24" xmlns="http://www.w3.org/2000/svg">
    <path d="M19.5 5h-15A2.5 2.5 0 0 0 2 7.5v10A2.5 2.5 0 0 0 4.5 20h15a2.5 2.5 0 0 0 2.5-2.5v-10C22 6.12 20.879 5 19.5 5Zm-15 1.875h15c.345 0 .625.28.625.625v.866l-6.516 5.394c-.905.753-2.318.753-3.221 0L3.875 8.368V7.5c0-.344.28-.625.625-.625Zm15 11.25h-15a.626.626 0 0 1-.625-.625v-6.691l5.316 4.43a4.407 4.407 0 0 0 5.62-.003l5.314-4.427V17.5a.627.627 0 0 1-.625.625Z"/>
</svg>
